public/avatar/body/75.svg

<svg xmlns:xlink="http://www.w3.org/1999/xlink" height="82" width="84.85" xmlns="http://www.w3.org/2000/svg"><g transform="translate(37.4 42.25)"><use height="38" transform="translate(-11.95 -17.45)" width="32.05" xlink:href="#a"/><use height="38.95" transform="translate(-12.45 -17.95)" width="33.05" xlink:href="#b"/><use height="21.1" transform="translate(-15 1.8)" width="39.9" xlink:href="#c"/></g><defs><path d="M27.35 7.4q2.15 4.15 3.55 8.75 1.45 4.7 1.15 9.5-.35 4.95-4.2 8.1-3.8 3.2-8.75 4.05l-2.6.2q-3.6 0-7.05-1.15-4.65-1.6-7.1-5.5Q-.2 27.4.05 23q.2-4.4 2-9.3Q3.85 8.75 7 5.05 10.1 1.3 14.7.1l1.8-.1q1.9.05 3.7.8 4.75 2.05 7.15 6.6" fill="#fff" fill-rule="evenodd" transform="translate(-.05)" id="d"/><path d="M27.35 7.4Q24.95 2.85 20.2.8 17.55-.3 14.7.1 10.1 1.3 7 5.05q-3.15 3.7-4.95 8.65-1.8 4.9-2 9.3-.25 4.4 2.3 8.35 2.45 3.9 7.1 5.5 4.65 1.55 9.65.95 4.95-.85 8.75-4.05 3.85-3.15 4.2-8.1.3-4.8-1.15-9.5-1.4-4.6-3.55-8.75Z" fill="none" stroke="#600" stroke-linecap="round" stroke-linejoin="round" transform="translate(.45 .5)" id="e"/><use height="38" width="32.05" xlink:href="#d" id="a"/><use height="38.95" width="33.05" xlink:href="#e" id="b"/><g id="c"><path d="M20.4 13.5q1.15.75 2.35 2.2 2 2.5 1.55 3.6-1.7 1.15-3.4 0-.95 1.3-2.9.6-.95 1.9-3.1 1.2l-.7 1-3.2-.5v.5q-1.7.7-3.4-.35l-3.6-.1-4.2-.15q-2.4 1.4-4.2-.4-2.2.95-3.3-.75-3.25.95-3.05-1.65-2.2 1.2-3.75-.65 1.15-2.9 5.15-4.55l-.2-.4q-2.45-5.4-2.4-8.35l.1-1.85q1 4 3.3 5.45 2.25 1.4 4.95 1.9-.6 1.1-.3 2.3l.25.75q4.6-4.05 7.95.4l.3.8q2.2-4.15 6.75-1.9l1.7.9q.45-1.1.05-2.25l-.2-.4-.3-.45 3.85-2.5q2.15-1.65 3.3-5.6.5 2.5.3 5.9l-1.25 4.55-1.6.65-3.15 1.35-3.35.9-3.4.45-3.55.15-3.6-.3-3.7-.7-3.8-1.05-2-.7q.8.95.3 1.95l-.25.35q3.4-.7 1.9 2.1 2-1.25 2.4.6 1.05-1.5 2.65-1.2.8.25 1.65 1.3 1.2-1.2 2.55-1.05 1.35.1 1.95 1.2 1.8-1.65 2.65-.9l1.05.95q1.05-1.95 2.85-.55l1.3-.9.85-.3q.75.1 1.4.65.6-2.4 3.1-.4-.45-2.55 2.8-1-.9-1.8.6-2.8" fill="#c00" fill-rule="evenodd" transform="translate(15 -1.8)"/><path d="M-3.6 10.25q3.3-2.1 5.25-1.35 1.95.7 2.75 1.55L6.1 9.2q1.2-.95 2.9-.35l3.6 1.55.3.45.2.4q.4 1.15-.05 2.25l-1.7-.9Q6.8 10.35 4.6 14.5l-.3-.8q-3.35-4.45-7.95-.4l-.25-.75q-.3-1.2.3-2.3m22.4 2.5 1.6.75q-1.5 1-.6 2.8-3.25-1.55-2.8 1-2.5-2-3.1.4-.65-.55-1.4-.65l-.85.3-1.3.9q-1.8-1.4-2.85.55l-1.05-.95q-.85-.75-2.65.9-.6-1.1-1.95-1.2Q.5 17.4-.7 18.6q-.85-1.05-1.65-1.3-1.6-.3-2.65 1.2-.4-1.85-2.4-.6 1.5-2.8-1.9-2.1l.25-.35q.5-1-.3-1.95l2 .7 3.8 1.05 3.7.7 3.6.3 3.55-.15 3.4-.45 3.35-.9 3.15-1.35 1.6-.65" fill="#900" fill-rule="evenodd" transform="translate(15 -1.8)"/><path d="M20.4 13.5q1.15.75 2.35 2.2 2 2.5 1.55 3.6-1.7 1.15-3.4 0-.95 1.3-2.9.6-.95 1.9-3.1 1.2l-.7 1-3.2-.5v.5q-1.7.7-3.4-.35l-3.6-.1-4.2-.15q-2.4 1.4-4.2-.4-2.2.95-3.3-.75-3.25.95-3.05-1.65-2.2 1.2-3.75-.65 1.15-2.9 5.15-4.55l-.2-.4q-2.45-5.4-2.4-8.35l.1-1.85m31.6-.6q.5 2.5.3 5.9l-1.25 4.55 1.6.75" fill="none" stroke="#333" stroke-linecap="round" stroke-linejoin="round" transform="translate(15 -1.8)"/><path d="M-11.85 2.9q1 4 3.3 5.45 2.25 1.4 4.95 1.9 3.3-2.1 5.25-1.35 1.95.7 2.75 1.55L6.1 9.2q1.2-.95 2.9-.35l3.6 1.55 3.85-2.5q2.15-1.65 3.3-5.6" fill="none" stroke="#600" stroke-linecap="round" stroke-linejoin="round" transform="translate(15 -1.8)"/></g></defs></svg>

<?xml version="1.0" encoding="UTF-8" standalone="no"?>
<svg xmlns:xlink="http://www.w3.org/1999/xlink" height="82.0px" width="84.85px" xmlns="http://www.w3.org/2000/svg">
  <g transform="matrix(1.0, 0.0, 0.0, 1.0, 37.4, 42.25)">
    <use height="38.0" transform="matrix(1.0, 0.0, 0.0, 1.0, -11.95, -17.45)" width="32.05" xlink:href="#sprite0"/>
    <use height="38.95" transform="matrix(1.0, 0.0, 0.0, 1.0, -12.45, -17.95)" width="33.05" xlink:href="#sprite1"/>
    <use height="21.1" transform="matrix(1.0, 0.0, 0.0, 1.0, -15.0, 1.8)" width="39.9" xlink:href="#shape2"/>
  </g>
  <defs>
    <g id="sprite0" transform="matrix(1.0, 0.0, 0.0, 1.0, -0.05, 0.0)">
      <use height="38.0" transform="matrix(1.0, 0.0, 0.0, 1.0, 0.05, 0.0)" width="32.05" xlink:href="#shape0"/>
    </g>
    <g id="shape0" transform="matrix(1.0, 0.0, 0.0, 1.0, -0.05, 0.0)">
      <path d="M27.35 7.4 Q29.5 11.55 30.9 16.15 32.35 20.85 32.05 25.65 31.7 30.6 27.85 33.75 24.05 36.95 19.1 37.8 L16.5 38.0 Q12.9 38.0 9.45 36.85 4.8 35.25 2.35 31.35 -0.2 27.4 0.05 23.0 0.25 18.6 2.05 13.7 3.85 8.75 7.0 5.05 10.1 1.3 14.7 0.1 L16.5 0.0 Q18.4 0.05 20.2 0.8 24.95 2.85 27.35 7.4" fill="#ffffff" fill-rule="evenodd" stroke="none"/>
    </g>
    <g id="sprite1" transform="matrix(1.0, 0.0, 0.0, 1.0, 0.45, 0.5)">
      <use height="38.95" transform="matrix(1.0, 0.0, 0.0, 1.0, -0.45, -0.5)" width="33.05" xlink:href="#shape1"/>
    </g>
    <g id="shape1" transform="matrix(1.0, 0.0, 0.0, 1.0, 0.45, 0.5)">
      <path d="M27.35 7.4 Q24.95 2.85 20.2 0.8 17.55 -0.3 14.7 0.1 10.1 1.3 7.0 5.05 3.85 8.75 2.05 13.7 0.25 18.6 0.05 23.0 -0.2 27.4 2.35 31.35 4.8 35.25 9.45 36.85 14.1 38.4 19.1 37.8 24.05 36.95 27.85 33.75 31.7 30.6 32.05 25.65 32.35 20.85 30.9 16.15 29.5 11.55 27.35 7.4 Z" fill="none" stroke="#660000" stroke-linecap="round" stroke-linejoin="round" stroke-width="1.0"/>
    </g>
    <g id="shape2" transform="matrix(1.0, 0.0, 0.0, 1.0, 15.0, -1.8)">
      <path d="M20.4 13.5 Q21.55 14.25 22.75 15.7 24.75 18.2 24.3 19.3 22.6 20.45 20.9 19.3 19.95 20.6 18.0 19.9 17.05 21.8 14.9 21.1 L14.2 22.1 11.0 21.6 11.0 22.1 Q9.3 22.8 7.6 21.75 L4.0 21.65 -0.2 21.5 Q-2.6 22.9 -4.4 21.1 -6.6 22.05 -7.7 20.35 -10.95 21.3 -10.75 18.7 -12.95 19.9 -14.5 18.05 -13.35 15.15 -9.35 13.5 L-9.55 13.1 Q-12.0 7.7 -11.95 4.75 L-11.85 2.9 Q-10.85 6.9 -8.55 8.35 -6.3 9.75 -3.6 10.25 -4.2 11.35 -3.9 12.55 L-3.65 13.3 Q0.95 9.25 4.3 13.7 L4.6 14.5 Q6.8 10.35 11.35 12.6 L13.05 13.5 Q13.5 12.4 13.1 11.25 L12.9 10.85 12.6 10.4 16.45 7.9 Q18.6 6.25 19.75 2.3 20.25 4.8 20.05 8.2 L18.8 12.75 17.2 13.4 14.05 14.75 10.7 15.65 7.3 16.1 3.75 16.25 0.15 15.95 -3.55 15.25 -7.35 14.2 -9.35 13.5 Q-8.55 14.45 -9.05 15.45 L-9.3 15.8 Q-5.9 15.1 -7.4 17.9 -5.4 16.65 -5.0 18.5 -3.95 17.0 -2.35 17.3 -1.55 17.55 -0.7 18.6 0.5 17.4 1.85 17.55 3.2 17.65 3.8 18.75 5.6 17.1 6.45 17.85 L7.5 18.8 Q8.55 16.85 10.35 18.25 L11.65 17.35 12.5 17.05 Q13.25 17.15 13.9 17.7 14.5 15.3 17.0 17.3 16.55 14.75 19.8 16.3 18.9 14.5 20.4 13.5" fill="#cc0000" fill-rule="evenodd" stroke="none"/>
      <path d="M-3.6 10.25 Q-0.3 8.15 1.65 8.9 3.6 9.6 4.4 10.45 L6.1 9.2 Q7.3 8.25 9.0 8.85 L12.6 10.4 12.9 10.85 13.1 11.25 Q13.5 12.4 13.05 13.5 L11.35 12.6 Q6.8 10.35 4.6 14.5 L4.3 13.7 Q0.95 9.25 -3.65 13.3 L-3.9 12.55 Q-4.2 11.35 -3.6 10.25 M18.8 12.75 L20.4 13.5 Q18.9 14.5 19.8 16.3 16.55 14.75 17.0 17.3 14.5 15.3 13.9 17.7 13.25 17.15 12.5 17.05 L11.65 17.35 10.35 18.25 Q8.55 16.85 7.5 18.8 L6.45 17.85 Q5.6 17.1 3.8 18.75 3.2 17.65 1.85 17.55 0.5 17.4 -0.7 18.6 -1.55 17.55 -2.35 17.3 -3.95 17.0 -5.0 18.5 -5.4 16.65 -7.4 17.9 -5.9 15.1 -9.3 15.8 L-9.05 15.45 Q-8.55 14.45 -9.35 13.5 L-7.35 14.2 -3.55 15.25 0.15 15.95 3.75 16.25 7.3 16.1 10.7 15.65 14.05 14.75 17.2 13.4 18.8 12.75" fill="#990000" fill-rule="evenodd" stroke="none"/>
      <path d="M20.4 13.5 Q21.55 14.25 22.75 15.7 24.75 18.2 24.3 19.3 22.6 20.45 20.9 19.3 19.95 20.6 18.0 19.9 17.05 21.8 14.9 21.1 L14.2 22.1 11.0 21.6 11.0 22.1 Q9.3 22.8 7.6 21.75 L4.0 21.65 -0.2 21.5 Q-2.6 22.9 -4.4 21.1 -6.6 22.05 -7.7 20.35 -10.95 21.3 -10.75 18.7 -12.95 19.9 -14.5 18.05 -13.35 15.15 -9.35 13.5 L-9.55 13.1 Q-12.0 7.7 -11.95 4.75 L-11.85 2.9 M19.75 2.3 Q20.25 4.8 20.05 8.2 L18.8 12.75 20.4 13.5" fill="none" stroke="#333333" stroke-linecap="round" stroke-linejoin="round" stroke-width="1.0"/>
      <path d="M-11.85 2.9 Q-10.85 6.9 -8.55 8.35 -6.3 9.75 -3.6 10.25 -0.3 8.15 1.65 8.9 3.6 9.6 4.4 10.45 L6.1 9.2 Q7.3 8.25 9.0 8.85 L12.6 10.4 16.45 7.9 Q18.6 6.25 19.75 2.3" fill="none" stroke="#660000" stroke-linecap="round" stroke-linejoin="round" stroke-width="1.0"/>
    </g>
  </defs>
</svg>
